images/ic_call.svg

<svg width="20" height="21" viewBox="0 0 20 21" fill="none" xmlns="http://www.w3.org/2000/svg">
<path d="M19.998 16.148C19.9701 15.3754 19.6479 14.6545 19.0906 14.1179C17.9996 13.0673 17.0855 12.4608 16.2138 12.2092C15.0128 11.8626 13.9003 12.1778 12.9075 13.1461C12.906 13.1475 12.9046 13.149 12.9031 13.1505L11.8468 14.1974C11.1867 13.8258 9.90311 13.0099 8.51632 11.625L8.4135 11.5224C7.02647 10.1373 6.20948 8.8552 5.83772 8.19672L6.88616 7.14187C6.88764 7.14039 6.88913 7.13891 6.89061 7.13739C7.86018 6.14601 8.17581 5.0351 7.82874 3.8356C7.57682 2.96519 6.96952 2.05229 5.91741 0.962726C5.38014 0.406337 4.65823 0.08451 3.8846 0.0566573C3.1105 0.0287657 2.36769 0.297852 1.79159 0.814257L1.76917 0.834385C1.75878 0.843709 1.74862 0.853344 1.7387 0.863213C0.591866 2.00849 -0.00930517 3.61181 0.00010889 5.4999C0.0161636 8.70732 1.78136 12.3753 4.72194 15.3118C5.27643 15.8656 5.90663 16.4136 6.59499 16.9407C6.93737 17.2028 7.42776 17.1382 7.6903 16.7962C7.95288 16.4543 7.88811 15.9646 7.54569 15.7024C6.91151 15.2168 6.33319 14.7142 5.82679 14.2086C3.17069 11.5561 1.57659 8.29764 1.56257 5.49213C1.55534 4.03802 1.99335 2.82433 2.8294 1.98071L2.83538 1.97533C3.40323 1.4663 4.26296 1.49727 4.79272 2.04586C6.81534 4.14058 6.66889 5.1295 5.77514 6.04474L4.32694 7.50181C4.09983 7.73033 4.03659 8.0747 4.16772 8.36883C4.20448 8.4513 5.09389 10.414 7.30893 12.626L7.41178 12.7285C9.62655 14.9403 11.5919 15.8285 11.6745 15.8652C11.969 15.9962 12.3139 15.933 12.5427 15.7062L14.0018 14.26C14.9184 13.3674 15.9087 13.2212 18.0061 15.2411C18.5555 15.7701 18.5865 16.6287 18.0769 17.1957L18.0713 17.2018C17.2335 18.0299 16.031 18.467 14.5908 18.467C14.5789 18.467 14.5671 18.467 14.5551 18.4669C13.4039 18.4612 12.0708 18.146 10.7001 17.5556C10.304 17.3849 9.8442 17.5673 9.67335 17.9629C9.50245 18.3586 9.68506 18.8177 10.0813 18.9883C11.6657 19.6708 13.1683 20.0204 14.5474 20.0273C14.562 20.0273 14.5765 20.0273 14.5912 20.0273C16.4628 20.0273 18.0524 19.4274 19.1904 18.291C19.2003 18.2811 19.2099 18.271 19.2192 18.2606L19.2395 18.2381C19.7565 17.6628 20.026 16.9206 19.998 16.148Z" fill="white"/>
</svg>

<svg xmlns="http://www.w3.org/2000/svg" fill="none" viewBox="0 0 20 21"><path d="M19.998 16.148a2.95 2.95 0 0 0-.907-2.03c-1.09-1.05-2.005-1.657-2.877-1.91-1.2-.347-2.313-.03-3.306.937l-1.06 1.05c-.66-.372-1.944-1.187-3.33-2.572l-.103-.103C7.026 10.137 6.21 8.855 5.838 8.197l1.048-1.055c.974-.996 1.3-2.107.943-3.306-.252-.87-.86-1.783-1.91-2.873A2.96 2.96 0 0 0 3.885.057a2.96 2.96 0 0 0-2.093.758l-.022.02-.03.03C.592 2.01-.01 3.612 0 5.5c.016 3.207 1.78 6.875 4.722 9.812.554.554 1.185 1.102 1.873 1.63a.78.78 0 1 0 .951-1.238c-.634-.486-1.213-.988-1.72-1.494-2.656-2.652-4.25-5.91-4.264-8.716-.007-1.454.43-2.668 1.267-3.51l.006-.005c.568-.51 1.428-.478 1.957.07 2.023 2.095 1.876 3.084.982 4L4.327 7.502a.78.78 0 0 0-.159.867c.037.082.926 2.045 3.14 4.257l.103.103c2.215 2.212 4.18 3.1 4.263 3.137a.78.78 0 0 0 .868-.159l1.46-1.446c.917-.893 1.907-1.04 4.004.98a1.4 1.4 0 0 1 .071 1.955l-.006.006c-.838.828-2.04 1.265-3.48 1.265-.012 0-.024 0-.036 0-1.15-.006-2.484-.32-3.855-.91a.78.78 0 0 0-.619 1.433c1.584.683 3.087 1.032 4.466 1.04h.044c1.872 0 3.46-.6 4.6-1.736a.75.75 0 0 0 .029-.03l.02-.023a2.95 2.95 0 0 0 .759-2.09z" fill="#fff"/></svg>
